public/assets/img/casestudies/wellmee/Step4.svg

<svg fill="none" height="49" viewBox="0 0 48 49" width="48" xmlns="http://www.w3.org/2000/svg"><path d="m20 10.7776c-.3956 0-.7822.1173-1.1111.3371s-.5853.5321-.7367.8976c-.1513.3654-.1909.7676-.1138 1.1555.0772.388.2677.7444.5474 1.0241s.6361.4701 1.024.5473c.388.0772.7901.0376 1.1556-.1138.3654-.1514.6778-.4077.8975-.7366.2198-.3289.3371-.7156.3371-1.1112 0-.5304-.2107-1.0391-.5858-1.4142-.3751-.375-.8838-.5858-1.4142-.5858zm-8 0c-.3956 0-.7822.1173-1.1111.3371s-.5853.5321-.7367.8976c-.1513.3654-.19094.7676-.1138 1.1555.0772.388.2677.7444.5474 1.0241s.6361.4701 1.024.5473c.388.0772.7901.0376 1.1556-.1138.3654-.1514.6778-.4077.8975-.7366.2198-.3289.3371-.7156.3371-1.1112 0-.5304-.2107-1.0391-.5858-1.4142-.3751-.375-.8838-.5858-1.4142-.5858zm16 0c-.3956 0-.7822.1173-1.1111.3371s-.5853.5321-.7367.8976c-.1513.3654-.1909.7676-.1138 1.1555.0772.388.2677.7444.5474 1.0241s.6361.4701 1.024.5473c.388.0772.7901.0376 1.1556-.1138.3654-.1514.6778-.4077.8975-.7366.2198-.3289.3371-.7156.3371-1.1112 0-.5304-.2107-1.0391-.5858-1.4142-.3751-.375-.8838-.5858-1.4142-.5858zm12-7.99995h-32c-1.5913 0-3.11742.63214-4.24264 1.75736s-1.75736 2.65134-1.75736 4.24264v31.99995c0 1.5913.63214 3.1175 1.75736 4.2427s2.65134 1.7573 4.24264 1.7573h32c1.5913 0 3.1174-.6321 4.2426-1.7573 1.1253-1.1252 1.7574-2.6514 1.7574-4.2427v-31.99995c0-1.5913-.6321-3.11742-1.7574-4.24264-1.1252-1.12522-2.6513-1.75736-4.2426-1.75736zm2 37.99995c0 .5305-.2107 1.0392-.5858 1.4143-.3751.375-.8838.5857-1.4142.5857h-32c-.53043 0-1.03914-.2107-1.41421-.5857-.37508-.3751-.58579-.8838-.58579-1.4143v-18h36zm0-22h-36v-9.99995c0-.53043.21071-1.03914.58579-1.41421.37507-.37508.88378-.58579 1.41421-.58579h32c.5304 0 1.0391.21071 1.4142.58579.3751.37507.5858.88378.5858 1.41421z" fill="#00ceba"/></svg>

<svg width="48" height="49" viewBox="0 0 48 49" fill="none" xmlns="http://www.w3.org/2000/svg">
<path d="M20 10.7776C19.6044 10.7776 19.2178 10.8949 18.8889 11.1147C18.56 11.3345 18.3036 11.6468 18.1522 12.0123C18.0009 12.3777 17.9613 12.7799 18.0384 13.1678C18.1156 13.5558 18.3061 13.9122 18.5858 14.1919C18.8655 14.4716 19.2219 14.662 19.6098 14.7392C19.9978 14.8164 20.3999 14.7768 20.7654 14.6254C21.1308 14.474 21.4432 14.2177 21.6629 13.8888C21.8827 13.5599 22 13.1732 22 12.7776C22 12.2472 21.7893 11.7385 21.4142 11.3634C21.0391 10.9884 20.5304 10.7776 20 10.7776ZM12 10.7776C11.6044 10.7776 11.2178 10.8949 10.8889 11.1147C10.56 11.3345 10.3036 11.6468 10.1522 12.0123C10.0009 12.3777 9.96126 12.7799 10.0384 13.1678C10.1156 13.5558 10.3061 13.9122 10.5858 14.1919C10.8655 14.4716 11.2219 14.662 11.6098 14.7392C11.9978 14.8164 12.3999 14.7768 12.7654 14.6254C13.1308 14.474 13.4432 14.2177 13.6629 13.8888C13.8827 13.5599 14 13.1732 14 12.7776C14 12.2472 13.7893 11.7385 13.4142 11.3634C13.0391 10.9884 12.5304 10.7776 12 10.7776ZM28 10.7776C27.6044 10.7776 27.2178 10.8949 26.8889 11.1147C26.56 11.3345 26.3036 11.6468 26.1522 12.0123C26.0009 12.3777 25.9613 12.7799 26.0384 13.1678C26.1156 13.5558 26.3061 13.9122 26.5858 14.1919C26.8655 14.4716 27.2219 14.662 27.6098 14.7392C27.9978 14.8164 28.3999 14.7768 28.7654 14.6254C29.1308 14.474 29.4432 14.2177 29.6629 13.8888C29.8827 13.5599 30 13.1732 30 12.7776C30 12.2472 29.7893 11.7385 29.4142 11.3634C29.0391 10.9884 28.5304 10.7776 28 10.7776ZM40 2.77765H8C6.4087 2.77765 4.88258 3.40979 3.75736 4.53501C2.63214 5.66023 2 7.18635 2 8.77765V40.7776C2 42.3689 2.63214 43.8951 3.75736 45.0203C4.88258 46.1455 6.4087 46.7776 8 46.7776H40C41.5913 46.7776 43.1174 46.1455 44.2426 45.0203C45.3679 43.8951 46 42.3689 46 40.7776V8.77765C46 7.18635 45.3679 5.66023 44.2426 4.53501C43.1174 3.40979 41.5913 2.77765 40 2.77765ZM42 40.7776C42 41.3081 41.7893 41.8168 41.4142 42.1919C41.0391 42.5669 40.5304 42.7776 40 42.7776H8C7.46957 42.7776 6.96086 42.5669 6.58579 42.1919C6.21071 41.8168 6 41.3081 6 40.7776V22.7776H42V40.7776ZM42 18.7776H6V8.77765C6 8.24722 6.21071 7.73851 6.58579 7.36344C6.96086 6.98836 7.46957 6.77765 8 6.77765H40C40.5304 6.77765 41.0391 6.98836 41.4142 7.36344C41.7893 7.73851 42 8.24722 42 8.77765V18.7776Z" fill="#00CEBA"/>
</svg>
